Newaita-dark/apps/22/system-software-update.svg

<?xml version="1.0" encoding="UTF-8"?>
<svg xmlns="http://www.w3.org/2000/svg" xmlns:xlink="http://www.w3.org/1999/xlink" width="22pt" height="22pt" viewBox="0 0 22 22" version="1.1">
<defs>
<linearGradient id="linear0" gradientUnits="userSpaceOnUse" x1="254" y1="233.5" x2="254" y2="254.666672" gradientTransform="matrix(0.0429729,0,0,0.0429729,-0.00000262285,9.239165)">
<stop offset="0" style="stop-color:rgb(0%,0%,0%);stop-opacity:0.27451;"/>
<stop offset="1" style="stop-color:rgb(0%,0%,0%);stop-opacity:0;"/>
</linearGradient>
<radialGradient id="radial0" gradientUnits="userSpaceOnUse" cx="450.908936" cy="189.579361" fx="450.908936" fy="189.579361" r="21.166656" gradientTransform="matrix(0.000000119742,-0.0537161,-0.0966889,-0.0000000698078,36.522014,43.721791)">
<stop offset="0" style="stop-color:rgb(0%,0%,0%);stop-opacity:0.313725;"/>
<stop offset="0.222222" style="stop-color:rgb(0%,0%,0%);stop-opacity:0.27451;"/>
<stop offset="1" style="stop-color:rgb(0%,0%,0%);stop-opacity:0;"/>
</radialGradient>
<radialGradient id="radial1" gradientUnits="userSpaceOnUse" cx="450.908936" cy="189.579361" fx="450.908936" fy="189.579361" r="21.166656" gradientTransform="matrix(-0.000000119742,0.0537161,0.0966889,0.0000000698078,-14.578108,-5.175142)">
<stop offset="0" style="stop-color:rgb(0%,0%,0%);stop-opacity:0.313725;"/>
<stop offset="0.222222" style="stop-color:rgb(0%,0%,0%);stop-opacity:0.27451;"/>
<stop offset="1" style="stop-color:rgb(0%,0%,0%);stop-opacity:0;"/>
</radialGradient>
<radialGradient id="radial2" gradientUnits="userSpaceOnUse" cx="450.908936" cy="189.579361" fx="450.908936" fy="189.579361" r="21.166656" gradientTransform="matrix(-0.000000119742,-0.0537161,0.0966889,-0.0000000698078,-14.578108,43.721791)">
<stop offset="0" style="stop-color:rgb(0%,0%,0%);stop-opacity:0.313725;"/>
<stop offset="0.222222" style="stop-color:rgb(0%,0%,0%);stop-opacity:0.27451;"/>
<stop offset="1" style="stop-color:rgb(0%,0%,0%);stop-opacity:0;"/>
</radialGradient>
<radialGradient id="radial3" gradientUnits="userSpaceOnUse" cx="450.908936" cy="189.579361" fx="450.908936" fy="189.579361" r="21.166656" gradientTransform="matrix(0.000000119742,0.0537161,-0.0966889,0.0000000698078,36.522013,-5.175142)">
<stop offset="0" style="stop-color:rgb(0%,0%,0%);stop-opacity:0.313725;"/>
<stop offset="0.222222" style="stop-color:rgb(0%,0%,0%);stop-opacity:0.27451;"/>
<stop offset="1" style="stop-color:rgb(0%,0%,0%);stop-opacity:0;"/>
</radialGradient>
<linearGradient id="linear1" gradientUnits="userSpaceOnUse" x1="222.25" y1="233.499588" x2="232.833328" y2="-168.667084" gradientTransform="matrix(0.0429729,0,0,-0.0429729,0,12.025219)">
<stop offset="0" style="stop-color:rgb(73.72549%,66.666667%,64.313725%);stop-opacity:1;"/>
<stop offset="1" style="stop-color:rgb(63.137255%,53.333333%,49.803922%);stop-opacity:1;"/>
</linearGradient>
<linearGradient id="linear2" gradientUnits="userSpaceOnUse" x1="254" y1="-168.667068" x2="254" y2="138.249603" gradientTransform="matrix(0.0429729,0,0,-0.0429729,0,12.02522)">
<stop offset="0" style="stop-color:rgb(100%,43.921569%,26.27451%);stop-opacity:1;"/>
<stop offset="1" style="stop-color:rgb(100%,54.117647%,39.607843%);stop-opacity:1;"/>
</linearGradient>
</defs>
<g id="surface1">
<path style=" stroke:none;fill-rule:nonzero;fill:url(#linear0);" d="M 3.523438 19.273438 L 18.417969 19.273438 L 18.417969 20.183594 L 3.523438 20.183594 Z M 3.523438 19.273438 "/>
<path style=" stroke:none;fill-rule:nonzero;fill:url(#radial0);" d="M 18.417969 19.273438 L 20.238281 19.273438 L 20.238281 18.363281 L 18.417969 18.363281 Z M 18.417969 19.273438 "/>
<path style=" stroke:none;fill-rule:nonzero;fill:url(#radial1);" d="M 3.523438 19.273438 L 1.707031 19.273438 L 1.707031 20.183594 L 3.523438 20.183594 Z M 3.523438 19.273438 "/>
<path style=" stroke:none;fill-rule:nonzero;fill:url(#radial2);" d="M 3.523438 19.273438 L 1.707031 19.273438 L 1.707031 18.363281 L 3.523438 18.363281 Z M 3.523438 19.273438 "/>
<path style=" stroke:none;fill-rule:nonzero;fill:url(#radial3);" d="M 18.417969 19.273438 L 20.238281 19.273438 L 20.238281 20.183594 L 18.417969 20.183594 Z M 18.417969 19.273438 "/>
<path style=" stroke:none;fill-rule:nonzero;fill:url(#linear1);" d="M 2.5 19.273438 L 19.328125 19.273438 C 19.707031 19.273438 20.011719 18.96875 20.011719 18.589844 L 20.011719 2.671875 C 20.011719 2.296875 19.707031 1.992188 19.328125 1.992188 L 2.5 1.992188 C 2.125 1.992188 1.820312 2.296875 1.820312 2.671875 L 1.820312 18.589844 C 1.820312 18.96875 2.125 19.273438 2.5 19.273438 Z M 2.5 19.273438 "/>
<path style=" stroke:none;fill-rule:nonzero;fill:rgb(100%,100%,100%);fill-opacity:0.392157;" d="M 1.820312 2.84375 L 1.820312 2.671875 C 1.820312 2.296875 2.125 1.992188 2.5 1.992188 L 19.328125 1.992188 C 19.707031 1.992188 20.011719 2.296875 20.011719 2.671875 L 20.011719 2.84375 C 20.011719 2.464844 19.707031 2.160156 19.328125 2.160156 L 2.5 2.160156 C 2.125 2.160156 1.820312 2.464844 1.820312 2.84375 Z M 1.820312 2.84375 "/>
<path style=" stroke:none;fill-rule:nonzero;fill:rgb(0%,0%,0%);fill-opacity:0.196078;" d="M 1.820312 4.605469 L 20.011719 4.605469 L 20.011719 4.71875 L 1.820312 4.71875 Z M 1.820312 4.605469 "/>
<path style=" stroke:none;fill-rule:nonzero;fill:rgb(90.196079%,90.196079%,90.196079%);fill-opacity:0.588235;" d="M 1.820312 4.71875 L 20.011719 4.71875 L 20.011719 4.832031 L 1.820312 4.832031 Z M 1.820312 4.71875 "/>
<path style=" stroke:none;fill-rule:nonzero;fill:rgb(12.941177%,12.941177%,12.941177%);fill-opacity:0.992157;" d="M 1.820312 4.664062 L 20.011719 4.664062 L 20.011719 4.777344 L 1.820312 4.777344 Z M 1.820312 4.664062 "/>
<path style=" stroke:none;fill-rule:nonzero;fill:rgb(90.196079%,90.196079%,90.196079%);fill-opacity:0.588235;" d="M 2.730469 19.273438 C 2.226562 19.273438 1.820312 18.867188 1.820312 18.363281 L 1.820312 18.25 C 1.820312 18.753906 2.226562 19.160156 2.730469 19.160156 L 19.101562 19.160156 C 19.605469 19.160156 20.011719 18.753906 20.011719 18.25 L 20.011719 18.363281 C 20.011719 18.867188 19.605469 19.273438 19.101562 19.273438 Z M 2.730469 19.273438 "/>
<path style=" stroke:none;fill-rule:nonzero;fill:url(#linear2);" d="M 2.5 19.273438 C 2.125 19.273438 1.820312 18.96875 1.820312 18.589844 L 1.820312 16.773438 C 1.820312 16.691406 1.832031 16.617188 1.859375 16.542969 L 8.1875 16.542969 C 8.4375 16.542969 8.640625 16.339844 8.640625 16.089844 L 8.640625 10.632812 L 7.277344 10.632812 C 6.871094 10.632812 6.667969 10.140625 6.957031 9.855469 L 10.59375 6.21875 C 10.769531 6.039062 11.058594 6.039062 11.238281 6.21875 L 14.875 9.855469 C 15.160156 10.140625 14.957031 10.632812 14.554688 10.632812 L 13.1875 10.632812 L 13.1875 16.089844 C 13.1875 16.339844 13.390625 16.542969 13.644531 16.542969 L 19.972656 16.542969 C 19.996094 16.617188 20.011719 16.691406 20.011719 16.773438 L 20.011719 18.589844 C 20.011719 18.96875 19.707031 19.273438 19.328125 19.273438 Z M 2.5 19.273438 "/>
<path style=" stroke:none;fill-rule:nonzero;fill:rgb(0%,0%,0%);fill-opacity:0.235294;" d="M 2.5 19.273438 C 2.125 19.273438 1.820312 18.96875 1.820312 18.589844 L 1.820312 18.363281 C 1.820312 18.742188 2.125 19.046875 2.5 19.046875 L 19.328125 19.046875 C 19.707031 19.046875 20.011719 18.742188 20.011719 18.363281 L 20.011719 18.589844 C 20.011719 18.96875 19.707031 19.273438 19.328125 19.273438 Z M 7.277344 10.632812 C 6.957031 10.632812 6.765625 10.328125 6.835938 10.0625 C 6.882812 10.25 7.046875 10.40625 7.277344 10.40625 L 8.640625 10.40625 L 8.640625 10.632812 Z M 13.1875 10.632812 L 13.1875 10.40625 L 14.554688 10.40625 C 14.78125 10.40625 14.945312 10.25 14.996094 10.0625 C 15.066406 10.328125 14.871094 10.632812 14.554688 10.632812 Z M 13.1875 10.632812 "/>
<path style=" stroke:none;fill-rule:nonzero;fill:rgb(12.941177%,12.941177%,12.941177%);fill-opacity:1;" d="M 2.5 19.335938 C 2.089844 19.335938 1.753906 19.003906 1.753906 18.589844 L 1.753906 2.671875 C 1.753906 2.261719 2.089844 1.925781 2.5 1.925781 L 19.328125 1.925781 C 19.742188 1.925781 20.074219 2.261719 20.074219 2.671875 L 20.074219 18.589844 C 20.074219 19.003906 19.742188 19.335938 19.328125 19.335938 Z M 2.5 19.207031 L 19.328125 19.207031 C 19.671875 19.207031 19.945312 18.933594 19.945312 18.589844 L 19.945312 2.671875 C 19.945312 2.328125 19.671875 2.054688 19.328125 2.054688 L 2.5 2.054688 C 2.15625 2.054688 1.882812 2.328125 1.882812 2.671875 L 1.882812 18.589844 C 1.882812 18.933594 2.15625 19.207031 2.5 19.207031 Z M 2.5 19.207031 "/>
<path style=" stroke:none;fill-rule:nonzero;fill:rgb(100%,100%,100%);fill-opacity:0.392157;" d="M 1.820312 17 L 1.820312 16.773438 C 1.820312 16.691406 1.832031 16.617188 1.859375 16.542969 L 8.1875 16.542969 C 8.4375 16.542969 8.640625 16.339844 8.640625 16.089844 L 8.640625 16.316406 C 8.640625 16.570312 8.4375 16.773438 8.1875 16.773438 L 1.859375 16.773438 C 1.832031 16.84375 1.820312 16.917969 1.820312 17 Z M 20.011719 17 C 20.011719 16.917969 19.996094 16.84375 19.972656 16.773438 L 13.644531 16.773438 C 13.390625 16.773438 13.1875 16.570312 13.1875 16.316406 L 13.1875 16.089844 C 13.1875 16.339844 13.390625 16.542969 13.644531 16.542969 L 19.972656 16.542969 C 19.996094 16.617188 20.011719 16.691406 20.011719 16.773438 Z M 6.835938 10.289062 C 6.800781 10.144531 6.832031 9.980469 6.957031 9.855469 L 10.59375 6.21875 C 10.769531 6.039062 11.058594 6.039062 11.238281 6.21875 L 14.875 9.855469 C 15 9.980469 15.03125 10.144531 14.992188 10.289062 C 14.976562 10.214844 14.9375 10.144531 14.875 10.082031 L 11.238281 6.445312 C 11.058594 6.269531 10.769531 6.269531 10.59375 6.445312 L 6.957031 10.082031 C 6.894531 10.144531 6.855469 10.214844 6.835938 10.289062 Z M 6.835938 10.289062 "/>
<path style=" stroke:none;fill-rule:nonzero;fill:rgb(12.941177%,12.941177%,12.941177%);fill-opacity:1;" d="M 2.5 19.335938 C 2.089844 19.335938 1.753906 19.003906 1.753906 18.589844 L 1.753906 16.773438 C 1.753906 16.683594 1.769531 16.601562 1.796875 16.523438 L 1.8125 16.480469 L 8.1875 16.480469 C 8.402344 16.480469 8.578125 16.308594 8.578125 16.089844 L 8.578125 10.695312 L 7.277344 10.695312 C 7.046875 10.695312 6.871094 10.554688 6.796875 10.375 C 6.722656 10.195312 6.75 9.972656 6.910156 9.808594 L 10.546875 6.171875 C 10.75 5.96875 11.078125 5.96875 11.28125 6.171875 L 14.921875 9.808594 C 15.082031 9.972656 15.105469 10.195312 15.03125 10.375 C 14.957031 10.554688 14.78125 10.695312 14.554688 10.695312 L 13.253906 10.695312 L 13.253906 16.089844 C 13.253906 16.308594 13.425781 16.480469 13.644531 16.480469 L 20.019531 16.480469 L 20.03125 16.523438 C 20.058594 16.601562 20.074219 16.683594 20.074219 16.773438 L 20.074219 18.589844 C 20.074219 19.003906 19.742188 19.335938 19.328125 19.335938 Z M 2.5 19.207031 L 19.328125 19.207031 C 19.671875 19.207031 19.945312 18.933594 19.945312 18.589844 L 19.945312 16.773438 C 19.945312 16.714844 19.9375 16.660156 19.921875 16.609375 L 13.644531 16.609375 C 13.355469 16.609375 13.125 16.375 13.125 16.089844 L 13.125 10.566406 L 14.554688 10.566406 C 14.730469 10.566406 14.855469 10.464844 14.914062 10.328125 C 14.96875 10.191406 14.953125 10.027344 14.828125 9.902344 L 11.191406 6.261719 C 11.039062 6.109375 10.792969 6.109375 10.640625 6.261719 L 7 9.902344 C 6.875 10.027344 6.859375 10.191406 6.917969 10.328125 C 6.972656 10.464844 7.101562 10.566406 7.277344 10.566406 L 8.707031 10.566406 L 8.707031 16.089844 C 8.707031 16.375 8.472656 16.609375 8.1875 16.609375 L 1.90625 16.609375 C 1.894531 16.660156 1.882812 16.714844 1.882812 16.773438 L 1.882812 18.589844 C 1.882812 18.933594 2.15625 19.207031 2.5 19.207031 Z M 2.5 19.207031 "/>
</g>
</svg>

<svg xmlns="http://www.w3.org/2000/svg" width="22pt" height="22pt" viewBox="0 0 22 22"><defs><linearGradient id="a" gradientUnits="userSpaceOnUse" x1="254" y1="233.5" x2="254" y2="254.667" gradientTransform="matrix(.04297 0 0 .04297 0 9.24)"><stop offset="0" stop-opacity=".275"/><stop offset="1" stop-opacity="0"/></linearGradient><radialGradient id="b" gradientUnits="userSpaceOnUse" cx="450.909" cy="189.579" fx="450.909" fy="189.579" r="21.167" gradientTransform="matrix(0 -.05372 -.09669 0 36.522 43.722)"><stop offset="0" stop-opacity=".314"/><stop offset=".222" stop-opacity=".275"/><stop offset="1" stop-opacity="0"/></radialGradient><radialGradient id="c" gradientUnits="userSpaceOnUse" cx="450.909" cy="189.579" fx="450.909" fy="189.579" r="21.167" gradientTransform="matrix(0 .05372 .09669 0 -14.578 -5.175)"><stop offset="0" stop-opacity=".314"/><stop offset=".222" stop-opacity=".275"/><stop offset="1" stop-opacity="0"/></radialGradient><radialGradient id="d" gradientUnits="userSpaceOnUse" cx="450.909" cy="189.579" fx="450.909" fy="189.579" r="21.167" gradientTransform="matrix(0 -.05372 .09669 0 -14.578 43.722)"><stop offset="0" stop-opacity=".314"/><stop offset=".222" stop-opacity=".275"/><stop offset="1" stop-opacity="0"/></radialGradient><radialGradient id="e" gradientUnits="userSpaceOnUse" cx="450.909" cy="189.579" fx="450.909" fy="189.579" r="21.167" gradientTransform="matrix(0 .05372 -.09669 0 36.522 -5.175)"><stop offset="0" stop-opacity=".314"/><stop offset=".222" stop-opacity=".275"/><stop offset="1" stop-opacity="0"/></radialGradient><linearGradient id="f" gradientUnits="userSpaceOnUse" x1="222.25" y1="233.5" x2="232.833" y2="-168.667" gradientTransform="matrix(.04297 0 0 -.04297 0 12.025)"><stop offset="0" stop-color="#bcaaa4"/><stop offset="1" stop-color="#a1887f"/></linearGradient><linearGradient id="g" gradientUnits="userSpaceOnUse" x1="254" y1="-168.667" x2="254" y2="138.25" gradientTransform="matrix(.04297 0 0 -.04297 0 12.025)"><stop offset="0" stop-color="#ff7043"/><stop offset="1" stop-color="#ff8a65"/></linearGradient></defs><path d="M3.523 19.273h14.895v.91H3.523zm0 0" fill="url(#a)"/><path d="M18.418 19.273h1.82v-.91h-1.82zm0 0" fill="url(#b)"/><path d="M3.523 19.273H1.707v.91h1.816zm0 0" fill="url(#c)"/><path d="M3.523 19.273H1.707v-.91h1.816zm0 0" fill="url(#d)"/><path d="M18.418 19.273h1.82v.91h-1.82zm0 0" fill="url(#e)"/><path d="M2.5 19.273h16.828a.682.682 0 0 0 .684-.683V2.672a.681.681 0 0 0-.684-.68H2.5a.68.68 0 0 0-.68.68V18.59c0 .379.305.683.68.683zm0 0" fill="url(#f)"/><path d="M1.82 2.844v-.172a.68.68 0 0 1 .68-.68h16.828c.379 0 .684.305.684.68v.172a.682.682 0 0 0-.684-.684H2.5a.681.681 0 0 0-.68.684zm0 0" fill="#fff" fill-opacity=".392"/><path d="M1.82 4.605h18.192v.114H1.82zm0 0" fill-opacity=".196"/><path d="M1.82 4.719h18.192v.113H1.82zm0 0" fill="#e6e6e6" fill-opacity=".588"/><path d="M1.82 4.664h18.192v.113H1.82zm0 0" fill="#212121" fill-opacity=".992"/><path d="M2.73 19.273a.909.909 0 0 1-.91-.91v-.113c0 .504.407.91.91.91h16.372c.503 0 .91-.406.91-.91v.113c0 .504-.407.91-.91.91zm0 0" fill="#e6e6e6" fill-opacity=".588"/><path d="M2.5 19.273a.681.681 0 0 1-.68-.683v-1.817a.65.65 0 0 1 .04-.23h6.327c.25 0 .454-.203.454-.453v-5.457H7.277a.454.454 0 0 1-.32-.778l3.637-3.636a.453.453 0 0 1 .644 0l3.637 3.636a.456.456 0 0 1-.32.778h-1.367v5.457c0 .25.203.453.457.453h6.328a.75.75 0 0 1 .039.23v1.817a.682.682 0 0 1-.684.683zm0 0" fill="url(#g)"/><path d="M2.5 19.273a.681.681 0 0 1-.68-.683v-.227c0 .38.305.684.68.684h16.828a.682.682 0 0 0 .684-.684v.227a.682.682 0 0 1-.684.683zm4.777-8.64a.456.456 0 0 1-.441-.57c.047.187.21.343.441.343h1.364v.227zm5.91 0v-.227h1.368c.226 0 .39-.156.441-.344a.458.458 0 0 1-.441.57zm0 0" fill-opacity=".235"/><path d="M2.5 19.336a.746.746 0 0 1-.746-.746V2.672c0-.41.336-.746.746-.746h16.828c.414 0 .746.336.746.746V18.59a.744.744 0 0 1-.746.746zm0-.129h16.828a.614.614 0 0 0 .617-.617V2.672a.614.614 0 0 0-.617-.617H2.5a.614.614 0 0 0-.617.617V18.59c0 .344.273.617.617.617zm0 0" fill="#212121"/><path d="M1.82 17v-.227a.65.65 0 0 1 .04-.23h6.327c.25 0 .454-.203.454-.453v.226a.454.454 0 0 1-.454.457H1.86A.614.614 0 0 0 1.82 17zm18.192 0a.707.707 0 0 0-.04-.227h-6.327a.455.455 0 0 1-.457-.457v-.226c0 .25.203.453.457.453h6.328a.75.75 0 0 1 .039.23zM6.836 10.29a.453.453 0 0 1 .121-.435l3.637-3.636a.453.453 0 0 1 .644 0l3.637 3.636c.125.125.156.29.117.434a.413.413 0 0 0-.117-.207l-3.637-3.637a.46.46 0 0 0-.644 0l-3.637 3.637a.453.453 0 0 0-.121.207zm0 0" fill="#fff" fill-opacity=".392"/><path d="M2.5 19.336a.746.746 0 0 1-.746-.746v-1.817c0-.09.016-.171.043-.25l.016-.043h6.375a.39.39 0 0 0 .39-.39v-5.395h-1.3a.52.52 0 0 1-.367-.887l3.636-3.636a.519.519 0 0 1 .734 0l3.64 3.637c.161.164.184.386.11.566a.513.513 0 0 1-.476.32h-1.301v5.395c0 .219.172.39.39.39h6.376l.011.043c.028.079.043.16.043.25v1.817a.744.744 0 0 1-.746.746zm0-.129h16.828a.614.614 0 0 0 .617-.617v-1.817a.555.555 0 0 0-.023-.164h-6.277a.52.52 0 0 1-.52-.52v-5.523h1.43a.38.38 0 0 0 .36-.238.385.385 0 0 0-.087-.426l-3.637-3.64a.389.389 0 0 0-.55 0L7 9.902a.377.377 0 0 0-.082.426.376.376 0 0 0 .36.238h1.429v5.524c0 .285-.234.52-.52.52h-6.28a.722.722 0 0 0-.024.163v1.817c0 .344.273.617.617.617zm0 0" fill="#212121"/></svg>
